src/assets/images/brands/studio318.svg

<svg height="72" viewBox="0 0 542 72" width="542" xmlns="http://www.w3.org/2000/svg"><path d="m509.335938 32.734375c-3.5-1.28125-6.09375-3.109375-7.78125-5.484375s-2.53125-5.21875-2.53125-8.53125c0-5 1.796875-9.203125 5.390625-12.609375s8.375-5.109375 14.34375-5.109375c6 0 10.828125 1.742188 14.484375 5.226563s5.484375 7.726562 5.484375 12.726562c0 3.1875-.835938 5.960938-2.507813 8.320313s-4.210937 4.179687-7.617187 5.460937c4.21875 1.375 7.429687 3.59375 9.632812 6.65625s3.304688 6.71875 3.304688 10.96875c0 5.875-2.078125 10.8125-6.234375 14.8125s-9.625 6-16.40625 6-12.25-2.007812-16.40625-6.023437-6.234375-9.023438-6.234375-15.023438c0-4.46875 1.132812-8.210937 3.398437-11.226562s5.492188-5.070313 9.679688-6.164063zm-1.6875-14.296875c0 3.25 1.046875 5.90625 3.140625 7.96875s4.8125 3.09375 8.15625 3.09375c3.25 0 5.914062-1.023437 7.992187-3.070312s3.117188-4.554688 3.117188-7.523438c0-3.09375-1.070313-5.695312-3.210938-7.804687s-4.804687-3.164063-7.992187-3.164063c-3.21875 0-5.890625 1.03125-8.015625 3.09375s-3.1875 4.53125-3.1875 7.40625zm-2.71875 31.734375c0 2.40625.570312 4.734375 1.710937 6.984375s2.835938 3.992188 5.085938 5.226563 4.671875 1.851562 7.265625 1.851562c4.03125 0 7.359375-1.296875 9.984375-3.890625s3.9375-5.890625 3.9375-9.890625c0-4.0625-1.351563-7.421875-4.054688-10.078125s-6.085937-3.984375-10.148437-3.984375c-3.96875 0-7.257813 1.3125-9.867188 3.9375s-3.914062 5.90625-3.914062 9.84375zm-30.1875 19.828125h-8.4375v-53.765625c-2.03125 1.9375-4.695313 3.875-7.992188 5.8125s-6.257812 3.390625-8.882812 4.359375v-8.15625c4.71875-2.21875 8.84375-4.90625 12.375-8.0625s6.03125-6.21875 7.5-9.1875h5.4375zm-85.125-18.140625 8.4375-1.125c.96875 4.78125 2.617187 8.226563 4.945312 10.335938s5.164063 3.164062 8.507813 3.164062c3.96875 0 7.320312-1.375 10.054687-4.125s4.101563-6.15625 4.101563-10.21875c0-3.875-1.265625-7.070312-3.796875-9.585937s-5.75-3.773438-9.65625-3.773438c-1.59375 0-3.578125.3125-5.953125.9375l.9375-7.40625c.5625.0625 1.015625.09375 1.359375.09375 3.59375 0 6.828125-.9375 9.703125-2.8125s4.3125-4.765625 4.3125-8.671875c0-3.09375-1.046875-5.65625-3.140625-7.6875s-4.796875-3.046875-8.109375-3.046875c-3.28125 0-6.015625 1.03125-8.203125 3.09375s-3.59375 5.15625-4.21875 9.28125l-8.4375-1.5c1.03125-5.65625 3.375-10.039062 7.03125-13.148437s8.203125-4.664063 13.640625-4.664063c3.75 0 7.203125.804688 10.359375 2.414063s5.570312 3.804687 7.242187 6.585937 2.507813 5.734375 2.507813 8.859375c0 2.96875-.796875 5.671875-2.390625 8.109375s-3.953125 4.375-7.078125 5.8125c4.0625.9375 7.21875 2.882813 9.46875 5.835938s3.375 6.648437 3.375 11.085937c0 6-2.1875 11.085938-6.5625 15.257813s-9.906189 6.257812-16.59375 6.257812c-6.03125 0-11.039063-1.796875-15.023438-5.390625s-6.257812-8.25-6.820312-13.96875zm-100.734375-15.328125c0-11.406311 3.062438-20.335937 9.1875-26.789062 6.125061-6.453125 14.031188-9.679688 23.71875-9.679688 6.343811 0 12.0625 1.515625 17.15625 4.546875s8.976562 7.257813 11.648437 12.679688 4.007813 11.570251 4.007813 18.445312c0 6.968811-1.40625 13.203125-4.21875 18.703125s-6.796875 9.664063-11.953125 12.492188-10.71875 4.242187-16.6875 4.242187c-6.468812 0-12.25-1.5625-17.34375-4.6875s-8.953125-7.390625-11.578125-12.796875-3.9375-11.125-3.9375-17.15625zm9.375.140625c0 8.281311 2.226562 14.804688 6.679687 19.570313s10.039001 7.148437 16.757813 7.148437c6.843811 0 12.476562-2.40625 16.898437-7.21875s6.632813-11.640564 6.632813-20.484375c0-5.59375-.945313-10.476562-2.835938-14.648437s-4.65625-7.40625-8.296875-9.703125-7.726562-3.445313-12.257812-3.445313c-6.437562 0-11.976563 2.210938-16.617188 6.632813s-6.960937 11.804626-6.960937 22.148437zm-31.734375 33.328125v-68.71875h9.09375v68.71875zm-70.875 0v-68.71875h23.671875c5.34375 0 9.421875.328125 12.234375.984375 3.9375.90625 7.296875 2.546875 10.078125 4.921875 3.625 3.0625 6.335937 6.976563 8.132812 11.742188s2.695313 10.210937 2.695313 16.335937c0 5.21875-.609375 9.84375-1.828125 13.875s-2.78125 7.367188-4.6875 10.007813-3.992188 4.71875-6.257813 6.234375-5 2.664062-8.203125 3.445312-6.882812 1.171875-11.039062 1.171875zm9.09375-8.109375h14.671875c4.53125 0 8.085937-.421875 10.664062-1.265625s4.632813-2.03125 6.164063-3.5625c2.15625-2.15625 3.835937-5.054687 5.039062-8.695312s1.804688-8.054688 1.804688-13.242188c0-7.187561-1.179688-12.710937-3.539063-16.570312s-5.226562-6.445313-8.601562-7.757813c-2.4375-.9375-6.359375-1.40625-11.765625-1.40625h-14.4375zm-33.328125-60.609375h9.09375v39.703125c0 6.906311-.78125 12.390625-2.34375 16.453125s-4.382813 7.367188-8.460938 9.914063-9.429687 3.820312-16.054687 3.820312c-6.4375 0-11.703125-1.109375-15.796875-3.328125s-7.015625-5.429687-8.765625-9.632812-2.625-9.945252-2.625-17.226563v-39.703125h9.09375v39.65625c0 5.96875.554687 10.367188 1.664062 13.195313s3.015625 5.007812 5.71875 6.539062 6.007813 2.296875 9.914063 2.296875c6.6875 0 11.453125-1.515625 14.296875-4.546875s4.265625-8.859314 4.265625-17.484375zm-86.25 68.71875v-60.609375h-22.640625v-8.109375h54.46875v8.109375h-22.734375v60.609375zm-84.609375-22.078125 8.578125-.75c.40625 3.4375 1.351562 6.257813 2.835937 8.460938s3.789063 3.984375 6.914063 5.34375 6.640625 2.039062 10.546875 2.039062c3.46875 0 6.53125-.515625 9.1875-1.546875s4.632812-2.445312 5.929687-4.242187 1.945313-3.757813 1.945313-5.882813c0-2.15625-.625-4.039062-1.875-5.648437s-3.3125-2.960938-6.1875-4.054688c-1.84375-.71875-5.921875-1.835937-12.234375-3.351562s-10.734375-2.945313-13.265625-4.289063c-3.28125-1.71875-5.726563-3.851562-7.335938-6.398437s-2.414062-5.398438-2.414062-8.554688c0-3.46875.984375-6.710937 2.953125-9.726562s4.84375-5.304688 8.625-6.867188 7.984375-2.34375 12.609375-2.34375c5.09375 0 9.585937.820313 13.476562 2.460938s6.882813 4.054687 8.976563 7.242187 3.21875 6.796875 3.375 10.828125l-8.71875.65625c-.46875-4.34375-2.054688-7.625-4.757813-9.84375s-6.695312-3.328125-11.976562-3.328125c-5.5 0-9.507813 1.007813-12.023438 3.023438s-3.773437 4.445312-3.773437 7.289062c0 2.46875.890625 4.5 2.671875 6.09375 1.75 1.59375 6.320312 3.226563 13.710937 4.898438s12.460938 3.132812 15.210938 4.382812c4 1.84375 6.953125 4.179688 8.859375 7.007813s2.859375 6.085937 2.859375 9.773437c0 3.65625-1.046875 7.101563-3.140625 10.335938s-5.101563 5.75-9.023438 7.546875-8.335937 2.695312-13.242187 2.695312c-6.21875 0-11.429688-.90625-15.632813-2.71875s-7.5-4.539062-9.890625-8.179687-3.648437-7.757813-3.773437-12.351563z"/></svg>

<?xml version="1.0" encoding="UTF-8"?>
<!-- Generated by Pixelmator Pro 3.6.17 -->
<svg width="542" height="72" viewBox="0 0 542 72" xmlns="http://www.w3.org/2000/svg">
    <path id="STUDIO-318" fill="#000000" fillRule="evenodd" stroke="none" d="M 509.335938 32.734375 C 505.835938 31.453125 503.242188 29.625 501.554688 27.25 C 499.867188 24.875 499.023438 22.03125 499.023438 18.71875 C 499.023438 13.71875 500.820313 9.515625 504.414063 6.109375 C 508.007813 2.703125 512.789063 1 518.757813 1 C 524.757813 1 529.585938 2.742188 533.242188 6.226563 C 536.898438 9.710938 538.726563 13.953125 538.726563 18.953125 C 538.726563 22.140625 537.890625 24.914063 536.21875 27.273438 C 534.546875 29.632813 532.007813 31.453125 528.601563 32.734375 C 532.820313 34.109375 536.03125 36.328125 538.234375 39.390625 C 540.4375 42.453125 541.539063 46.109375 541.539063 50.359375 C 541.539063 56.234375 539.460938 61.171875 535.304688 65.171875 C 531.148438 69.171875 525.679688 71.171875 518.898438 71.171875 C 512.117188 71.171875 506.648438 69.164063 502.492188 65.148438 C 498.335938 61.132813 496.257813 56.125 496.257813 50.125 C 496.257813 45.65625 497.390625 41.914063 499.65625 38.898438 C 501.921875 35.882813 505.148438 33.828125 509.335938 32.734375 Z M 507.648438 18.4375 C 507.648438 21.6875 508.695313 24.34375 510.789063 26.40625 C 512.882813 28.46875 515.601563 29.5 518.945313 29.5 C 522.195313 29.5 524.859375 28.476563 526.9375 26.429688 C 529.015625 24.382813 530.054688 21.875 530.054688 18.90625 C 530.054688 15.8125 528.984375 13.210938 526.84375 11.101563 C 524.703125 8.992188 522.039063 7.9375 518.851563 7.9375 C 515.632813 7.9375 512.960938 8.96875 510.835938 11.03125 C 508.710938 13.09375 507.648438 15.5625 507.648438 18.4375 Z M 504.929688 50.171875 C 504.929688 52.578125 505.5 54.90625 506.640625 57.15625 C 507.78125 59.40625 509.476563 61.148438 511.726563 62.382813 C 513.976563 63.617188 516.398438 64.234375 518.992188 64.234375 C 523.023438 64.234375 526.351563 62.9375 528.976563 60.34375 C 531.601563 57.75 532.914063 54.453125 532.914063 50.453125 C 532.914063 46.390625 531.5625 43.03125 528.859375 40.375 C 526.15625 37.71875 522.773438 36.390625 518.710938 36.390625 C 514.742188 36.390625 511.453125 37.703125 508.84375 40.328125 C 506.234375 42.953125 504.929688 46.234375 504.929688 50.171875 Z M 474.742188 70 L 466.304688 70 L 466.304688 16.234375 C 464.273438 18.171875 461.609375 20.109375 458.3125 22.046875 C 455.015625 23.984375 452.054688 25.4375 449.429688 26.40625 L 449.429688 18.25 C 454.148438 16.03125 458.273438 13.34375 461.804688 10.1875 C 465.335938 7.03125 467.835938 3.96875 469.304688 1 L 474.742188 1 Z M 389.617188 51.859375 L 398.054688 50.734375 C 399.023438 55.515625 400.671875 58.960938 403 61.070313 C 405.328125 63.179688 408.164063 64.234375 411.507813 64.234375 C 415.476563 64.234375 418.828125 62.859375 421.5625 60.109375 C 424.296875 57.359375 425.664063 53.953125 425.664063 49.890625 C 425.664063 46.015625 424.398438 42.820313 421.867188 40.304688 C 419.335938 37.789063 416.117188 36.53125 412.210938 36.53125 C 410.617188 36.53125 408.632813 36.84375 406.257813 37.46875 L 407.195313 30.0625 C 407.757813 30.125 408.210938 30.15625 408.554688 30.15625 C 412.148438 30.15625 415.382813 29.21875 418.257813 27.34375 C 421.132813 25.46875 422.570313 22.578125 422.570313 18.671875 C 422.570313 15.578125 421.523438 13.015625 419.429688 10.984375 C 417.335938 8.953125 414.632813 7.9375 411.320313 7.9375 C 408.039063 7.9375 405.304688 8.96875 403.117188 11.03125 C 400.929688 13.09375 399.523438 16.1875 398.898438 20.3125 L 390.460938 18.8125 C 391.492188 13.15625 393.835938 8.773438 397.492188 5.664063 C 401.148438 2.554688 405.695313 1 411.132813 1 C 414.882813 1 418.335938 1.804688 421.492188 3.414063 C 424.648438 5.023438 427.0625 7.21875 428.734375 10 C 430.40625 12.78125 431.242188 15.734375 431.242188 18.859375 C 431.242188 21.828125 430.445313 24.53125 428.851563 26.96875 C 427.257813 29.40625 424.898438 31.34375 421.773438 32.78125 C 425.835938 33.71875 428.992188 35.664063 431.242188 38.617188 C 433.492188 41.570313 434.617188 45.265625 434.617188 49.703125 C 434.617188 55.703125 432.429688 60.789063 428.054688 64.960938 C 423.679688 69.132813 418.148499 71.21875 411.460938 71.21875 C 405.429688 71.21875 400.421875 69.421875 396.4375 65.828125 C 392.453125 62.234375 390.179688 57.578125 389.617188 51.859375 Z M 288.882813 36.53125 C 288.882813 25.124939 291.945251 16.195313 298.070313 9.742188 C 304.195374 3.289063 312.101501 0.0625 321.789063 0.0625 C 328.132874 0.0625 333.851563 1.578125 338.945313 4.609375 C 344.039063 7.640625 347.921875 11.867188 350.59375 17.289063 C 353.265625 22.710938 354.601563 28.859314 354.601563 35.734375 C 354.601563 42.703186 353.195313 48.9375 350.382813 54.4375 C 347.570313 59.9375 343.585938 64.101563 338.429688 66.929688 C 333.273438 69.757813 327.710938 71.171875 321.742188 71.171875 C 315.273376 71.171875 309.492188 69.609375 304.398438 66.484375 C 299.304688 63.359375 295.445313 59.09375 292.820313 53.6875 C 290.195313 48.28125 288.882813 42.5625 288.882813 36.53125 Z M 298.257813 36.671875 C 298.257813 44.953186 300.484375 51.476563 304.9375 56.242188 C 309.390625 61.007813 314.976501 63.390625 321.695313 63.390625 C 328.539124 63.390625 334.171875 60.984375 338.59375 56.171875 C 343.015625 51.359375 345.226563 44.531311 345.226563 35.6875 C 345.226563 30.09375 344.28125 25.210938 342.390625 21.039063 C 340.5 16.867188 337.734375 13.632813 334.09375 11.335938 C 330.453125 9.039063 326.367188 7.890625 321.835938 7.890625 C 315.398376 7.890625 309.859375 10.101563 305.21875 14.523438 C 300.578125 18.945313 298.257813 26.328064 298.257813 36.671875 Z M 266.523438 70 L 266.523438 1.28125 L 275.617188 1.28125 L 275.617188 70 Z M 195.648438 70 L 195.648438 1.28125 L 219.320313 1.28125 C 224.664063 1.28125 228.742188 1.609375 231.554688 2.265625 C 235.492188 3.171875 238.851563 4.8125 241.632813 7.1875 C 245.257813 10.25 247.96875 14.164063 249.765625 18.929688 C 251.5625 23.695313 252.460938 29.140625 252.460938 35.265625 C 252.460938 40.484375 251.851563 45.109375 250.632813 49.140625 C 249.414063 53.171875 247.851563 56.507813 245.945313 59.148438 C 244.039063 61.789063 241.953125 63.867188 239.6875 65.382813 C 237.421875 66.898438 234.6875 68.046875 231.484375 68.828125 C 228.28125 69.609375 224.601563 70 220.445313 70 Z M 204.742188 61.890625 L 219.414063 61.890625 C 223.945313 61.890625 227.5 61.46875 230.078125 60.625 C 232.65625 59.78125 234.710938 58.59375 236.242188 57.0625 C 238.398438 54.90625 240.078125 52.007813 241.28125 48.367188 C 242.484375 44.726563 243.085938 40.3125 243.085938 35.125 C 243.085938 27.937439 241.90625 22.414063 239.546875 18.554688 C 237.1875 14.695313 234.320313 12.109375 230.945313 10.796875 C 228.507813 9.859375 224.585938 9.390625 219.179688 9.390625 L 204.742188 9.390625 Z M 171.414063 1.28125 L 180.507813 1.28125 L 180.507813 40.984375 C 180.507813 47.890686 179.726563 53.375 178.164063 57.4375 C 176.601563 61.5 173.78125 64.804688 169.703125 67.351563 C 165.625 69.898438 160.273438 71.171875 153.648438 71.171875 C 147.210938 71.171875 141.945313 70.0625 137.851563 67.84375 C 133.757813 65.625 130.835938 62.414063 129.085938 58.210938 C 127.335938 54.007813 126.460938 48.265686 126.460938 40.984375 L 126.460938 1.28125 L 135.554688 1.28125 L 135.554688 40.9375 C 135.554688 46.90625 136.109375 51.304688 137.21875 54.132813 C 138.328125 56.960938 140.234375 59.140625 142.9375 60.671875 C 145.640625 62.203125 148.945313 62.96875 152.851563 62.96875 C 159.539063 62.96875 164.304688 61.453125 167.148438 58.421875 C 169.992188 55.390625 171.414063 49.562561 171.414063 40.9375 Z M 85.164063 70 L 85.164063 9.390625 L 62.523438 9.390625 L 62.523438 1.28125 L 116.992188 1.28125 L 116.992188 9.390625 L 94.257813 9.390625 L 94.257813 70 Z M 0.554688 47.921875 L 9.132813 47.171875 C 9.539063 50.609375 10.484375 53.429688 11.96875 55.632813 C 13.453125 57.835938 15.757813 59.617188 18.882813 60.976563 C 22.007813 62.335938 25.523438 63.015625 29.429688 63.015625 C 32.898438 63.015625 35.960938 62.5 38.617188 61.46875 C 41.273438 60.4375 43.25 59.023438 44.546875 57.226563 C 45.84375 55.429688 46.492188 53.46875 46.492188 51.34375 C 46.492188 49.1875 45.867188 47.304688 44.617188 45.695313 C 43.367188 44.085938 41.304688 42.734375 38.429688 41.640625 C 36.585938 40.921875 32.507813 39.804688 26.195313 38.289063 C 19.882813 36.773438 15.460938 35.34375 12.929688 34 C 9.648438 32.28125 7.203125 30.148438 5.59375 27.601563 C 3.984375 25.054688 3.179688 22.203125 3.179688 19.046875 C 3.179688 15.578125 4.164063 12.335938 6.132813 9.320313 C 8.101563 6.304688 10.976563 4.015625 14.757813 2.453125 C 18.539063 0.890625 22.742188 0.109375 27.367188 0.109375 C 32.460938 0.109375 36.953125 0.929688 40.84375 2.570313 C 44.734375 4.210938 47.726563 6.625 49.820313 9.8125 C 51.914063 13 53.039063 16.609375 53.195313 20.640625 L 44.476563 21.296875 C 44.007813 16.953125 42.421875 13.671875 39.71875 11.453125 C 37.015625 9.234375 33.023438 8.125 27.742188 8.125 C 22.242188 8.125 18.234375 9.132813 15.71875 11.148438 C 13.203125 13.164063 11.945313 15.59375 11.945313 18.4375 C 11.945313 20.90625 12.835938 22.9375 14.617188 24.53125 C 16.367188 26.125 20.9375 27.757813 28.328125 29.429688 C 35.71875 31.101563 40.789063 32.5625 43.539063 33.8125 C 47.539063 35.65625 50.492188 37.992188 52.398438 40.820313 C 54.304688 43.648438 55.257813 46.90625 55.257813 50.59375 C 55.257813 54.25 54.210938 57.695313 52.117188 60.929688 C 50.023438 64.164063 47.015625 66.679688 43.09375 68.476563 C 39.171875 70.273438 34.757813 71.171875 29.851563 71.171875 C 23.632813 71.171875 18.421875 70.265625 14.21875 68.453125 C 10.015625 66.640625 6.71875 63.914063 4.328125 60.273438 C 1.9375 56.632813 0.679688 52.515625 0.554688 47.921875 Z"/>
</svg>
